icons/1_Primary/Razer.svg

<svg xmlns="http://www.w3.org/2000/svg" width="1024" height="1024" fill="none">
   <g clip-path="url(#a)">
      <path fill="#98DC9A" d="M512 1024c282.77 0 512-229.23 512-512S794.77 0 512 0 0 229.23 0 512s229.23 512 512 512Z"/>
      <path fill="#fff" d="m774.2 253.4-7.6-1.9 4.1-6.9c.3-.4.2-1-.3-1.3-.4-.3-1-.3-1.3.1l-6.8 7.1-16.5 6.4c-2.1-2-5.1-2.6-7.8-1.6-3.9 1-5.9.6-8.1.1-2.7-.5-5.5-1.1-11.3 1.1-.5.2-.7.2-1.2.1-1-.1-2.4-.4-6.7 1.1-4 1.3-5.9 4.1-7.4 6.4-1.1 1.6-1.9 2.8-3.1 3.1-8.4.6-15.8 6.2-18.9 14.1-3 7.9-1.2 16.9 4.6 23.1 1 1.4 3.3 4.7 2.5 5.5-.6.6-.9.6-1.2.6-.4 0-1.3-.4-2.8-2.6-6.2-9.3-14.7-17.1-24.5-22.5 0 0-.1 0-.1-.1-15.6-6.1-33-2.9-45.4 8.4-12.2 11.2-17 28.3-12.4 44.3 6.1 27.5 30 52.7 53 77.1 15.7 16.6 30.6 32.4 38.6 47.6 17.5 32.7-.2 48.1-8.7 53.2-9.7 6-21.5 8.1-32.6 5.8 12.8-20.3 11-46.9-4.4-65.4-20.1-22.1-38.5-10.2-38.7-10.1-.4.3-.5.7-.4 1.2.1.5.6.7 1.1.6 13.2-1.6 27.3 7.2 34.4 21.3 7.8 15.5 5 32.7-7.4 46.1-8.9-5.8-16.9-12.9-23.8-21-.3-.3-.7-.8-1.2-1.3-18.3-20.1-35.6-29.6-51.7-28.2 2-12.9-1-27.1-8.6-41.2-7.4-13.7-18.8-26.1-32-34.9-3.2-2.2-6.6-4.1-10.1-5.6-3.4-40.3-28.7-60.8-51.3-66.5-25.7-6.5-51.7 3.6-66.1 25.8-14.3 21.8-22.1 49-29.6 75.3-6 21.1-11.7 41.1-20.4 57.5-7.1 13.4-15.7 22-24.1 24.1-5.1 1.3-10.3.2-15.4-3.3-12.1-8.3-6.9-23-2.7-34.9 1.3-3.7 2.5-7.1 3.1-9.9 1.6-5.6.6-11.6-2.7-16.4-3.4-4.8-8.7-7.7-14.5-8.1-14.1-1.1-20.5 13.4-23 18.9l-.1.3v.1c-.8 2.7-2.9 4.7-5.7 5.2-2.8.5-5.5-.7-7.1-3l-.1-.1c-.8-.9-1.5-2.6-2.2-4.4-1.2-2.9-2.5-6.1-5-7.9-2.4-1.7-3.9-2.1-5.2-2.5-.8-.2-1.4-.4-2-.9-4.9-3.7-7.8-4-10.5-4.3-2.1-.2-4.4-.5-7.9-2.4-2.5-1.8-5.8-1.9-8.4-.4l-12.9-10.6-4.7-8.8c-.2-.5-.8-.7-1.3-.5-.5.2-.7.7-.6 1.2l2.2 7.6H183c-.5 0-.9.4-1 .9-.1.5.3 1 .7 1.1l9.6 2.4 12.9 10.6c-.7 2.8.3 5.8 2.5 7.6 2.9 2.9 3.5 4.9 4.3 7.1.9 2.6 1.8 5.3 6.4 9.2.4.4.5.5.7 1 .4.9.9 2.2 4.2 5.1 3 2.8 6.5 3 9.2 3.1 1.9.1 3.5.2 4.3 1.1 4.7 7 13.2 10.8 21.6 9.5 8.4-1.3 15.4-7.4 17.8-15.5 1.1-2.5 2.5-5.1 3.6-4.8.8.2 1 .5 1.1.7.2.4.3 1.4-.8 3.8-4.9 10-7.4 21.3-7.2 32.5v.1c2.5 16.6 14 30 30 35.1 16 5.1 33.1.7 44.7-11.3 20.8-19.1 30.7-52.4 40.3-84.7 6.5-21.9 12.6-42.5 21.8-57 18.6-29.4 39.9-24.7 50.8-19.3 10 5.4 17.8 14.6 21.3 25.4-23.8-.8-45.9 14-54.1 36.5-9 28.5 10.4 38.5 10.6 38.6.4.2.9.1 1.2-.3.3-.4.3-.9 0-1.2-7.9-10.5-7.5-27 1-40.1 9.5-14.6 25.8-21.1 43.7-17.3-.5 10.4-2.4 20.6-5.8 30.6-.1.3-.2.8-.4 1.3-8.1 26.1-7.7 46 1.3 59.4-24.5 9.7-43.2 39.5-45.7 73.1-.4 3.8-.4 7.7-.1 11.5-33.2 23-38.3 55.2-32 77.8 7.1 25.6 28.7 43.1 55 44.6 26 1.5 53.4-5.3 79.9-12 21.3-5.3 41.4-10.4 60.1-11.1 15.2-.5 26.8 2.6 32.8 8.8 3.7 3.8 5.3 8.8 4.8 14.9-1.1 14.6-16.5 17.6-28.8 19.9-3.8.7-7.4 1.4-10.2 2.4-5.7 1.4-10.3 5.3-12.8 10.6-2.4 5.3-2.3 11.4.3 16.6 5.4 11.6 20.5 10.9 26.9 10.6.5 0 .9 0 1.3-.1 3.7 0 6.3 1 7.7 2.9 1.6 2.1 1.4 5.2.8 7.3-.4 1.3-1.6 2.8-2.8 4.4-1.8 2.4-3.9 5-4.2 8.2 0 3.3.2 4.8.3 5.7.1.9.1.9-.3 1.8 0 .1-.1.2-.1.3-.8 6.1.4 8.8 1.5 11.3.9 2.1 1.8 4 1.8 7.9-.3 3.1 1.3 6 4 7.5l-2.4 16.9-5.3 8.3c-.3.4-.2 1 .2 1.3.4.3 1 .3 1.3-.1l5.5-5.6 4 7c.2.3.5.5.9.5.1 0 .3 0 .4-.1.5-.2.7-.7.6-1.2l-2.8-9.5 2.5-17.1c2.7-.8 4.8-3.1 5.3-5.9 1.1-3.9 2.5-5.5 4-7.2 1.8-2.1 3.6-4.2 4.6-10.2v-.2c0-.5.1-.6.4-1 .6-.8 1.6-1.9 2.5-6.2.6-2.7-.7-5.7-1.7-8.3-.9-2.1-1.7-4.1-1.3-5.2 3.8-12 .8-19.3-2.4-23.2-4.7-5.8-13-8.7-22.3-7.9-2.6 0-5.9 0-6.1-.7-.1-.5-.1-.9.1-1.2.3-.4 1.1-1.1 3.6-1.2 11.2-.7 22.2-4.2 31.8-10 0 0 .1 0 .1-.1 13.1-10.4 18.9-27.1 15.4-43.4-3.6-16.4-15.9-29-32.1-33.1-26.9-8.1-60.5-.2-93.1 7.5-22.3 5.3-43.4 10.2-60.6 9.6-35.6-1.4-41.7-22.1-42.2-34.4-.4-11.4 3.8-22.6 11.3-31.1 11.2 21.2 35.1 33 58.8 28.9 29.2-6.4 28.1-28.1 28.1-28.4 0-.5-.4-.8-.8-.9-.5-.1-.9.2-1.1.6-5.2 12.2-19.9 20.1-35.7 19.2-17.3-1-30.9-11.9-36.4-29.2 9.4-4.8 19.5-8.2 30-10.2.4-.1 1-.2 1.7-.4 26.6-5.8 43.6-16.2 50.3-30.7 24 18 61.6 14.9 86.7 2.3 3.4-1.6 6.7-3.6 9.8-5.9 36.6 17.1 67 5.5 83.4-11.2 18.6-18.9 22.9-46.4 11.2-70-11.7-23-31.4-43.3-50.4-63-15.3-15.8-29.7-30.7-39.6-46.3-8.1-12.9-11.2-24.6-8.8-32.9 1.5-5 5-8.9 10.5-11.5 13.2-6.3 23.5 5.4 31.8 14.7 2.6 2.9 5 5.6 7.3 7.5 4.1 4.2 9.7 6.3 15.5 5.8 5.8-.5 11-3.7 14.2-8.5 7.1-10.5-1-23.3-4.1-28.2-.3-.5-.6-1-.8-1.3 0-.1-.1-.1-.1-.2-1.9-2-2.4-4.8-1.4-7.4 1-2.6 3.2-4.3 6-4.6h.1c1.2-.2 3 0 4.9.3 3 .4 6.5.9 9-.4 2.2-1.1 3.4-2.2 4.4-3 .8-.7 1.3-1.1 2.1-1.5 5.6-2.4 7.3-4.7 8.9-6.9 1.3-1.8 2.6-3.5 6-5.5 2.9-1.1 4.8-3.8 4.9-6.9l16-6.4 9.9-.1c.5 0 .9-.4 1-.9.1-.3-.3-.7-.8-.9ZM506.6 537.6c-11 9.3-30.8 16.3-45.3 21.4-2.6.9-5.1 1.8-7.3 2.6 3.5-15.6 11.5-29.5 23.2-40.4 6.5-6.6 15.2-10.5 24.5-11.2 5.4-.2 10.6 3.1 12.5 7.9 2.4 6.1-.4 13.3-7.6 19.7Zm22.1-64.5c-2.9 5-8.2 7.8-13.2 6.9-6.1-1.1-10.5-7.2-12.2-16.8-3.1-13.1.4-32.9 2.9-47.3.6-3.6 1.2-6.8 1.6-9.6 11.8 10.7 20 24.6 23.6 40.2 2.3 8.9 1.4 18.4-2.7 26.6Zm39.8 57.1c-9-2.4-16.8-8-21.9-15.6-2.5-4.4-2.7-9.5-.5-13.3 2.1-3.7 6.2-5.9 11.4-6.1h.2c3.5-.1 7 .6 10.3 1.7 12.4 4.2 27.6 16.9 38.7 26.2 3.1 2.6 5.8 4.9 8.1 6.7-15.1 4.8-31 5-46.3.4Z"/>
   </g>
   <defs>
      <clipPath id="a">
         <path fill="#fff" d="M0 0h1024v1024H0z"/>
      </clipPath>
   </defs>
</svg>

<svg width="1024" height="1024" viewBox="0 0 1024 1024" fill="none" xmlns="http://www.w3.org/2000/svg">
<g clip-path="url(#clip0_2_3294)">
<path d="M512 1024C794.77 1024 1024 794.77 1024 512C1024 229.23 794.77 0 512 0C229.23 0 0 229.23 0 512C0 794.77 229.23 1024 512 1024Z" fill="#98DC9A"/>
<path d="M774.2 253.4L766.6 251.5L770.7 244.6C771 244.2 770.9 243.6 770.4 243.3C770 243 769.4 243 769.1 243.4L762.3 250.5L745.8 256.9C743.7 254.9 740.7 254.3 738 255.3C734.1 256.3 732.1 255.9 729.9 255.4C727.2 254.9 724.4 254.3 718.6 256.5C718.1 256.7 717.9 256.7 717.4 256.6C716.4 256.5 715 256.2 710.7 257.7C706.7 259 704.8 261.8 703.3 264.1C702.2 265.7 701.4 266.9 700.2 267.2C691.8 267.8 684.4 273.4 681.3 281.3C678.3 289.2 680.1 298.2 685.9 304.4C686.9 305.8 689.2 309.1 688.4 309.9C687.8 310.5 687.5 310.5 687.2 310.5C686.8 310.5 685.9 310.1 684.4 307.9C678.2 298.6 669.7 290.8 659.9 285.4C659.9 285.4 659.8 285.4 659.8 285.3C644.2 279.2 626.8 282.4 614.4 293.7C602.2 304.9 597.4 322 602 338C608.1 365.5 632 390.7 655 415.1C670.7 431.7 685.6 447.5 693.6 462.7C711.1 495.4 693.4 510.8 684.9 515.9C675.2 521.9 663.4 524 652.3 521.7C665.1 501.4 663.3 474.8 647.9 456.3C627.8 434.2 609.4 446.1 609.2 446.2C608.8 446.5 608.7 446.9 608.8 447.4C608.9 447.9 609.4 448.1 609.9 448C623.1 446.4 637.2 455.2 644.3 469.3C652.1 484.8 649.3 502 636.9 515.4C628 509.6 620 502.5 613.1 494.4C612.8 494.1 612.4 493.6 611.9 493.1C593.6 473 576.3 463.5 560.2 464.9C562.2 452 559.2 437.8 551.6 423.7C544.2 410 532.8 397.6 519.6 388.8C516.4 386.6 513 384.7 509.5 383.2C506.1 342.9 480.8 322.4 458.2 316.7C432.5 310.2 406.5 320.3 392.1 342.5C377.8 364.3 370 391.5 362.5 417.8C356.5 438.9 350.8 458.9 342.1 475.3C335 488.7 326.4 497.3 318 499.4C312.9 500.7 307.7 499.6 302.6 496.1C290.5 487.8 295.7 473.1 299.9 461.2C301.2 457.5 302.4 454.1 303 451.3C304.6 445.7 303.6 439.7 300.3 434.9C296.9 430.1 291.6 427.2 285.8 426.8C271.7 425.7 265.3 440.2 262.8 445.7L262.7 446V446.1C261.9 448.8 259.8 450.8 257 451.3C254.2 451.8 251.5 450.6 249.9 448.3L249.8 448.2C249 447.3 248.3 445.6 247.6 443.8C246.4 440.9 245.1 437.7 242.6 435.9C240.2 434.2 238.7 433.8 237.4 433.4C236.6 433.2 236 433 235.4 432.5C230.5 428.8 227.6 428.5 224.9 428.2C222.8 428 220.5 427.7 217 425.8C214.5 424 211.2 423.9 208.6 425.4L195.7 414.8L191 406C190.8 405.5 190.2 405.3 189.7 405.5C189.2 405.7 189 406.2 189.1 406.7L191.3 414.3H183C182.5 414.3 182.1 414.7 182 415.2C181.9 415.7 182.3 416.2 182.7 416.3L192.3 418.7L205.2 429.3C204.5 432.1 205.5 435.1 207.7 436.9C210.6 439.8 211.2 441.8 212 444C212.9 446.6 213.8 449.3 218.4 453.2C218.8 453.6 218.9 453.7 219.1 454.2C219.5 455.1 220 456.4 223.3 459.3C226.3 462.1 229.8 462.3 232.5 462.4C234.4 462.5 236 462.6 236.8 463.5C241.5 470.5 250 474.3 258.4 473C266.8 471.7 273.8 465.6 276.2 457.5C277.3 455 278.7 452.4 279.8 452.7C280.6 452.9 280.8 453.2 280.9 453.4C281.1 453.8 281.2 454.8 280.1 457.2C275.2 467.2 272.7 478.5 272.9 489.7V489.8C275.4 506.4 286.9 519.8 302.9 524.9C318.9 530 336 525.6 347.6 513.6C368.4 494.5 378.3 461.2 387.9 428.9C394.4 407 400.5 386.4 409.7 371.9C428.3 342.5 449.6 347.2 460.5 352.6C470.5 358 478.3 367.2 481.8 378C458 377.2 435.9 392 427.7 414.5C418.7 443 438.1 453 438.3 453.1C438.7 453.3 439.2 453.2 439.5 452.8C439.8 452.4 439.8 451.9 439.5 451.6C431.6 441.1 432 424.6 440.5 411.5C450 396.9 466.3 390.4 484.2 394.2C483.7 404.6 481.8 414.8 478.4 424.8C478.3 425.1 478.2 425.6 478 426.1C469.9 452.2 470.3 472.1 479.3 485.5C454.8 495.2 436.1 525 433.6 558.6C433.2 562.4 433.2 566.3 433.5 570.1C400.3 593.1 395.2 625.3 401.5 647.9C408.6 673.5 430.2 691 456.5 692.5C482.5 694 509.9 687.2 536.4 680.5C557.7 675.2 577.8 670.1 596.5 669.4C611.7 668.9 623.3 672 629.3 678.2C633 682 634.6 687 634.1 693.1C633 707.7 617.6 710.7 605.3 713C601.5 713.7 597.9 714.4 595.1 715.4C589.4 716.8 584.8 720.7 582.3 726C579.9 731.3 580 737.4 582.6 742.6C588 754.2 603.1 753.5 609.5 753.2C610 753.2 610.4 753.2 610.8 753.1C614.5 753.1 617.1 754.1 618.5 756C620.1 758.1 619.9 761.2 619.3 763.3C618.9 764.6 617.7 766.1 616.5 767.7C614.7 770.1 612.6 772.7 612.3 775.9C612.3 779.2 612.5 780.7 612.6 781.6C612.7 782.5 612.7 782.5 612.3 783.4C612.3 783.5 612.2 783.6 612.2 783.7C611.4 789.8 612.6 792.5 613.7 795C614.6 797.1 615.5 799 615.5 802.9C615.2 806 616.8 808.9 619.5 810.4L617.1 827.3L611.8 835.6C611.5 836 611.6 836.6 612 836.9C612.4 837.2 613 837.2 613.3 836.8L618.8 831.2L622.8 838.2C623 838.5 623.3 838.7 623.7 838.7C623.8 838.7 624 838.7 624.1 838.6C624.6 838.4 624.8 837.9 624.7 837.4L621.9 827.9L624.4 810.8C627.1 810 629.2 807.7 629.7 804.9C630.8 801 632.2 799.4 633.7 797.7C635.5 795.6 637.3 793.5 638.3 787.5V787.3C638.3 786.8 638.4 786.7 638.7 786.3C639.3 785.5 640.3 784.4 641.2 780.1C641.8 777.4 640.5 774.4 639.5 771.8C638.6 769.7 637.8 767.7 638.2 766.6C642 754.6 639 747.3 635.8 743.4C631.1 737.6 622.8 734.7 613.5 735.5C610.9 735.5 607.6 735.5 607.4 734.8C607.3 734.3 607.3 733.9 607.5 733.6C607.8 733.2 608.6 732.5 611.1 732.4C622.3 731.7 633.3 728.2 642.9 722.4C642.9 722.4 643 722.4 643 722.3C656.1 711.9 661.9 695.2 658.4 678.9C654.8 662.5 642.5 649.9 626.3 645.8C599.4 637.7 565.8 645.6 533.2 653.3C510.9 658.6 489.8 663.5 472.6 662.9C437 661.5 430.9 640.8 430.4 628.5C430 617.1 434.2 605.9 441.7 597.4C452.9 618.6 476.8 630.4 500.5 626.3C529.7 619.9 528.6 598.2 528.6 597.9C528.6 597.4 528.2 597.1 527.8 597C527.3 596.9 526.9 597.2 526.7 597.6C521.5 609.8 506.8 617.7 491 616.8C473.7 615.8 460.1 604.9 454.6 587.6C464 582.8 474.1 579.4 484.6 577.4C485 577.3 485.6 577.2 486.3 577C512.9 571.2 529.9 560.8 536.6 546.3C560.6 564.3 598.2 561.2 623.3 548.6C626.7 547 630 545 633.1 542.7C669.7 559.8 700.1 548.2 716.5 531.5C735.1 512.6 739.4 485.1 727.7 461.5C716 438.5 696.3 418.2 677.3 398.5C662 382.7 647.6 367.8 637.7 352.2C629.6 339.3 626.5 327.6 628.9 319.3C630.4 314.3 633.9 310.4 639.4 307.8C652.6 301.5 662.9 313.2 671.2 322.5C673.8 325.4 676.2 328.1 678.5 330C682.6 334.2 688.2 336.3 694 335.8C699.8 335.3 705 332.1 708.2 327.3C715.3 316.8 707.2 304 704.1 299.1C703.8 298.6 703.5 298.1 703.3 297.8C703.3 297.7 703.2 297.7 703.2 297.6C701.3 295.6 700.8 292.8 701.8 290.2C702.8 287.6 705 285.9 707.8 285.6H707.9C709.1 285.4 710.9 285.6 712.8 285.9C715.8 286.3 719.3 286.8 721.8 285.5C724 284.4 725.2 283.3 726.2 282.5C727 281.8 727.5 281.4 728.3 281C733.9 278.6 735.6 276.3 737.2 274.1C738.5 272.3 739.8 270.6 743.2 268.6C746.1 267.5 748 264.8 748.1 261.7L764.1 255.3L774 255.2C774.5 255.2 774.9 254.8 775 254.3C775.1 254 774.7 253.6 774.2 253.4ZM506.6 537.6C495.6 546.9 475.8 553.9 461.3 559C458.7 559.9 456.2 560.8 454 561.6C457.5 546 465.5 532.1 477.2 521.2C483.7 514.6 492.4 510.7 501.7 510C507.1 509.8 512.3 513.1 514.2 517.9C516.6 524 513.8 531.2 506.6 537.6ZM528.7 473.1C525.8 478.1 520.5 480.9 515.5 480C509.4 478.9 505 472.8 503.3 463.2C500.2 450.1 503.7 430.3 506.2 415.9C506.8 412.3 507.4 409.1 507.8 406.3C519.6 417 527.8 430.9 531.4 446.5C533.7 455.4 532.8 464.9 528.7 473.1ZM568.5 530.2C559.5 527.8 551.7 522.2 546.6 514.6C544.1 510.2 543.9 505.1 546.1 501.3C548.2 497.6 552.3 495.4 557.5 495.2H557.7C561.2 495.1 564.7 495.8 568 496.9C580.4 501.1 595.6 513.8 606.7 523.1C609.8 525.7 612.5 528 614.8 529.8C599.7 534.6 583.8 534.8 568.5 530.2Z" fill="white"/>
</g>
<defs>
<clipPath id="clip0_2_3294">
<rect width="1024" height="1024" fill="white"/>
</clipPath>
</defs>
</svg>
